X: 30091
T: Oikan Ayns Bethlehem
R: jig
M: 6/8
K: Aminor
A|A2A e2e|edc B2B|c2c dcd|e3e2 E|
A2B cBA|dcd e3|edc BcB|A3A2||

